dist/svg/u1F5A8.svg

<?xml version="1.0" encoding="UTF-8"?><svg id="a" xmlns="http://www.w3.org/2000/svg" viewBox="0 0 40 40"><rect x=".062" y=".062" width="40" height="40" fill="none"/><g><path d="M28.507,19.818H11.618c-.84,0-1.512-.672-1.512-1.512V4.899c0-.84,.672-1.512,1.512-1.512H28.507c.84,0,1.512,.672,1.512,1.512v13.408c0,.84-.672,1.512-1.512,1.512Z" fill="#333d4b"/><path d="M33.531,28.843H6.319c-1.512,0-2.749-1.237-2.749-2.749V15.313c0-1.512,1.237-2.749,2.749-2.749h27.503c1.512,0,2.749,1.237,2.749,2.749v10.506c-.015,1.68-1.359,3.024-3.039,3.024Z" fill="#4e5968"/><path d="M28.981,36.753H11.45c-.641,0-1.13-.55-1.069-1.191l.977-9.544c.061-.55,.519-.962,1.069-.962h15.576c.55,0,1.023,.412,1.069,.962l.977,9.544c.076,.641-.428,1.191-1.069,1.191Z" fill="#afb7c0"/><circle cx="32.31" cy="16.428" r="1.19" fill="#8a94a0"/><path d="M11.506,15.238h-3.656c-.657,0-1.19,.533-1.19,1.19s.533,1.19,1.19,1.19h3.656c.657,0,1.19-.533,1.19-1.19s-.533-1.19-1.19-1.19Z" fill="#8a94a0"/></g></svg>

<svg id="Layer_1" data-name="Layer 1" xmlns="http://www.w3.org/2000/svg" viewBox="0 0 40 40"><defs><style>.cls-1{fill:none;}.cls-2{fill:#333d4b;}.cls-3{fill:#4e5968;}.cls-4{fill:#afb7c0;}.cls-5{fill:#8a94a0;}</style></defs><rect class="cls-1" x="0.062" y="0.062" width="40" height="40"/><path class="cls-2" d="M28.507,19.818H11.618a1.506,1.506,0,0,1-1.512-1.512V4.9a1.506,1.506,0,0,1,1.512-1.512H28.507A1.506,1.506,0,0,1,30.019,4.9V18.306A1.506,1.506,0,0,1,28.507,19.818Z"/><path class="cls-3" d="M33.531,28.843H6.319A2.757,2.757,0,0,1,3.57,26.094V15.313a2.756,2.756,0,0,1,2.749-2.748h27.5a2.756,2.756,0,0,1,2.749,2.748V25.819A3.034,3.034,0,0,1,33.531,28.843Z"/><path class="cls-4" d="M28.981,36.753H11.45a1.075,1.075,0,0,1-1.069-1.191l.977-9.544a1.075,1.075,0,0,1,1.069-.962H28a1.064,1.064,0,0,1,1.069.962l.977,9.544A1.066,1.066,0,0,1,28.981,36.753Z"/><circle class="cls-5" cx="32.31" cy="16.428" r="1.19"/><path class="cls-5" d="M11.506,15.238H7.85a1.19,1.19,0,0,0,0,2.379h3.656a1.19,1.19,0,1,0,0-2.379Z"/></svg>
